!!! OTL: Berkowitz327
!!! Chapter: 1
!!! Section: III
!!! Page: 79
!!! Mode: 
!!! Encoder: DJB
**kern
*staff1
*I"Piano
=1-
*clefF4
*k[f#c#]
*b:
*M6/8
8.BB/L
16D/K
8BB/J
4F#\
8F#\
=2
8.B\L
16A#\K
8B\J
4.F#\
=3
8.c#\L
16B#\K
8c#\J
4F#\
16G\LL
16E\JJ
=4
8D/L
8C#/
8BB/J
8r
8F#\L
8G#\J
=5
8.A\L
16G#\K
8F#\J
8E#\L
8F#\
8G#\J
=6
4C#/
8d\
4c#\
8B\
=7
!!linebreak:original
8.A\L
16G#\K
8F#\J
8C#\L
8F#\
8E#\J
=8
4.F#\
8r
8E\L
8F#\J
=9
8.G\L
16E\K
8C#\J
8r
16D\LL
16E\
16F#\
16G\JJ
=10
8.F#\L
16D\K
8BB\J
16r
16BB\LL
16C#\
16D\
16E\
16F#\JJ
=11
8.E\L
16D\K
8C#\J
8BB/L
8C#/
8D/J
=12
4E\
8E#\
4F#\
8F#\
=13
!!linebreak:original
8.B\L
16A#\K
8B\J
4F#\
16E#\LL
16F#\JJ
=14
8.G\L
16F#\K
8G\J
4C#/
16D\LL
16E\JJ
=15
8F#\L
8D\
8BB\J
4G\
8AA#/
=16
8.BB\L
16D\K
8F#\J
4.B\
==
*-
